; generated by PrusaSlicer 2.5.2+linux-x64-GTK2 on 2023-06-16 at 19:31:28 UTC


;
;
; 

; external perimeters extrusion width = 0.45mm
; perimeters extrusion width = 0.45mm
; infill extrusion width = 0.45mm
; solid infill extrusion width = 0.45mm
; top infill extrusion width = 0.40mm
; first layer extrusion width = 0.42mm

M73 P0 R104
M73 Q0 S105
M201 X1000 Y1000 Z200 E5000 ; sets maximum accelerations, mm/sec^2
M203 X200 Y200 Z12 E120 ; sets maximum feedrates, mm / sec
M204 P1250 R1250 T1250 ; sets acceleration (P, T) and retract acceleration (R), mm/sec^2
M205 X8.00 Y8.00 Z0.40 E4.50 ; sets the jerk limits, mm/sec
M205 S0 T0 ; sets the minimum extruding and travel feed rate, mm/sec
M107
;TYPE:Custom
M862.3 P "MK3S" ; printer model check
M862.1 P0.4 ; nozzle diameter check
M115 U3.12.2 ; tell printer latest fw version
G90 ; use absolute coordinates
M83 ; extruder relative mode
M104 S215 ; set extruder temp
M140 S60 ; set bed temp
M190 S60 ; wait for bed temp
M109 S215 ; wait for extruder temp
G28 W ; home all without mesh bed level
G80 ; mesh bed leveling

G1 Z0.2 F720
G1 Y-3 F1000 ; go outside print area
G92 E0
G1 X60 E9 F1000 ; intro line
G1 X100 E12.5 F1000 ; intro line

G92 E0
M221 S95

; Don't change E values below. Excessive value can damage the printer.

M907 E538 ; set extruder motor current
G21 ; set units to millimeters
G90 ; use absolute coordinates
M83 ; use relative distances for extrusion
M900 K0.05 ; Filament gcode LA 1.5
M900 K30 ; Filament gcode LA 1.0
M107
;LAYER_CHANGE
;Z:0.2
;HEIGHT:0.2
;BEFORE_LAYER_CHANGE
G92 E0.0
;0.2


G1 E-.8 F2100
G1 Z.4 F720
;AFTER_LAYER_CHANGE
;0.2
G1 X77.55 Y77.339 F10800
G1 Z.2 F720
G1 E.8 F2100
M204 S800
;TYPE:Skirt/Brim
;WIDTH:0.42
G1 F1200
G1 X79.051 Y75.875 E.06574
G1 X81.99 Y73.408 E.12031
G1 X83.693 Y72.184 E.06574
G1 X86.967 Y70.184 E.12031
G1 X88.833 Y69.227 E.06574
G1 X92.368 Y67.737 E.12031
G1 X94.356 Y67.069 E.06574
G1 X98.074 Y66.122 E.12031
G1 X100.139 Y65.758 E.06574
G1 X103.957 Y65.376 E.12031
G1 X107.743 Y65.362 E.11869
M73 P0 R103
G1 X109.631 Y65.49 E.05933
G1 X174.93 Y72.425 E2.05892
G1 X176.392 Y72.745 E.04695
G1 X177.792 Y73.276 E.04695
G1 X179.099 Y74.006 E.04695
G1 X180.371 Y74.999 E.05059
G1 X181.703 Y76.485 E.06255
G1 X182.253 Y77.318 E.03131
G1 X182.874 Y78.552 E.0433
G1 X183.464 Y80.457 E.06255
G1 X183.616 Y81.444 E.03131
G1 X183.671 Y82.5 E.03314
G1 X183.655 Y128.058 E1.42843
G1 X183.38 Y129.916 E.05891
G1 X182.874 Y131.448 E.05059
G1 X181.988 Y133.105 E.05891
G1 X180.995 Y134.377 E.05059
G1 X179.603 Y135.639 E.05891
G1 X178.24 Y136.502 E.05059
G1 X176.504 Y137.221 E.05891
G1 X174.93 Y137.575 E.05059
G1 X109.631 Y144.51 E2.05892
G1 X105.935 Y144.676 E.116
G1 X101.985 Y144.473 E.12402
G1 X98.074 Y143.878 E.12402
G1 X94.356 Y142.931 E.12031
G1 X90.637 Y141.584 E.12402
G1 X87.071 Y139.873 E.12402
G1 X84.635 Y138.424 E.08886
G1 X81.99 Y136.592 E.10089
G1 X78.964 Y134.045 E.12402
G1 X76.285 Y131.298 E.12031
G1 X74.937 Y129.691 E.06574
G1 X72.697 Y126.576 E.12031
G1 X71.604 Y124.787 E.06574
G1 X69.853 Y121.372 E.12031
G1 X69.039 Y119.44 E.06574
G1 X67.817 Y115.803 E.12031
G1 X67.299 Y113.771 E.06574
G1 X66.633 Y109.992 E.12031
G1 X66.424 Y107.906 E.06574
G1 X66.329 Y104.07 E.12031
G1 X66.433 Y101.976 E.06574
G1 X66.91 Y98.169 E.12031
G1 X67.326 Y96.113 E.06574
G1 X68.365 Y92.42 E.12031
G1 X69.082 Y90.449 E.06574
G1 X70.66 Y86.952 E.12031
G1 X71.663 Y85.11 E.06574
G1 X73.745 Y81.887 E.12031
G1 X75.011 Y80.216 E.06574
G1 X77.51 Y77.384 E.11843
M204 S1000
; printing object camera_mount_obl.stl id:0 copy 0
;WIPE_START
G1 F8640
G1 X79.051 Y75.875 E-.49797
G1 X79.92 Y75.145 E-.26203
;WIPE_END
G1 E-.04 F2100
G1 Z.6 F720
G1 X81.188 Y131.459 F10800
G1 Z.2 F720
G1 E.8 F2100
M204 S800
;TYPE:Perimeter
;WIDTH:0.419999
G1 F1200
G1 X80.028 Y130.327 E.05082
G1 X78.798 Y129.001 E.05671
G1 X77.636 Y127.617 E.05666
G1 X76.42 Y125.994 E.06358
G1 X75.524 Y124.68 E.04988
G1 X74.581 Y123.136 E.05671
G1 X73.716 Y121.548 E.05671
G1 X72.931 Y119.919 E.05671
G1 X72.229 Y118.252 E.05671
G1 X71.61 Y116.552 E.05671
G1 X71.077 Y114.824 E.05671
G1 X70.631 Y113.071 E.0567
M73 Q0 S104
G1 X70.273 Y111.299 E.05671
G1 X70.003 Y109.51 E.05671
G1 X69.823 Y107.711 E.05671
G1 X69.733 Y105.904 E.05671
G1 X69.733 Y104.096 E.05671
G1 X69.823 Y102.289 E.05671
G1 X70.003 Y100.49 E.05671
G1 X70.273 Y98.701 E.05671
G1 X70.631 Y96.929 E.05671
G1 X71.077 Y95.176 E.0567
G1 X71.61 Y93.448 E.05671
G1 X72.229 Y91.748 E.05671
G1 X72.931 Y90.082 E.05671
G1 X73.716 Y88.452 E.05671
G1 X74.581 Y86.864 E.05671
G1 X75.524 Y85.32 E.05671
G1 X76.543 Y83.826 E.05671
G1 X77.635 Y82.384 E.05671
G1 X78.798 Y80.999 E.05671
G1 X80.028 Y79.673 E.05671
G1 X81.321 Y78.411 E.05666
G1 X82.849 Y77.078 E.06358
G1 X84.093 Y76.086 E.04988
G1 X85.561 Y75.03 E.05671
G1 X87.08 Y74.049 E.05671
G1 X88.647 Y73.145 E.05671
G1 X90.256 Y72.319 E.05671
G1 X91.905 Y71.576 E.05671
G1 X93.588 Y70.915 E.05671
G1 X95.303 Y70.339 E.05671
G1 X97.044 Y69.849 E.05671
G1 X98.807 Y69.447 E.05671
G1 X100.588 Y69.132 E.05671
G1 X102.383 Y68.908 E.05671
G1 X104.185 Y68.773 E.05666
G1 X106.193 Y68.732 E.06299
G1 X107.642 Y68.765 E.04544
G1 X109.287 Y68.877 E.05168
G1 X110.924 Y69.064 E.05168
G1 X112.552 Y69.325 E.05168
G1 X114.166 Y69.66 E.05169
G1 X115.763 Y70.068 E.05168
G1 X117.349 Y70.55 E.05196
G1 X131.291 Y75.141 E.46023
G1 X132.366 Y75.444 E.03503
G1 X133.319 Y75.619 E.03037
G1 X134.867 Y75.727 E.04868
G1 X173.826 Y75.736 E1.22153
G1 X174.481 Y75.8 E.02063
G1 X175.467 Y76.022 E.03167
G1 X176.079 Y76.241 E.02041
G1 X176.982 Y76.695 E.03167
G1 X177.528 Y77.061 E.02062
G1 X178.042 Y77.482 E.02084
G1 X178.512 Y77.952 E.02084
G1 X178.929 Y78.461 E.02063
G1 X179.47 Y79.314 E.03167
G1 X179.751 Y79.908 E.02062
G1 X179.975 Y80.534 E.02084
G1 X180.136 Y81.179 E.02084
G1 X180.234 Y81.836 E.02084
G1 X180.267 Y82.517 E.02136
G1 X180.258 Y127.832 E1.42083
G1 X180.193 Y128.494 E.02084
G1 X180.065 Y129.139 E.02063
G1 X179.748 Y130.098 E.03167
G1 X179.47 Y130.686 E.02041
G1 X178.929 Y131.54 E.03167
G1 X178.512 Y132.048 E.02062
G1 X178.042 Y132.518 E.02084
G1 X177.528 Y132.939 E.02084
G1 X176.976 Y133.309 E.02084
G1 X176.39 Y133.622 E.02084
G1 X175.776 Y133.876 E.02084
G1 X175.14 Y134.069 E.02084
G1 X174.488 Y134.199 E.02084
G1 X173.826 Y134.264 E.02084
G1 X136.121 Y134.273 E1.18222
G1 X134.703 Y134.28 E.04447
G1 X133.813 Y134.324 E.02792
G1 X133.005 Y134.454 E.02566
G1 X132.066 Y134.638 E.03
G1 X131.361 Y134.835 E.02296
G1 X117.349 Y139.45 E.46256
G1 X115.763 Y139.932 E.05196
G1 X114.166 Y140.34 E.05168
G1 X112.552 Y140.675 E.05169
G1 X110.924 Y140.936 E.05168
G1 X109.287 Y141.123 E.05168
G1 X107.642 Y141.235 E.05168
G1 X105.995 Y141.273 E.05166
G1 X104.186 Y141.228 E.05673
G1 X102.383 Y141.092 E.05671
G1 X100.588 Y140.868 E.05671
G1 X98.807 Y140.553 E.05671
G1 X97.044 Y140.151 E.05671
G1 X95.303 Y139.661 E.05671
G1 X93.588 Y139.085 E.05671
G1 X91.905 Y138.424 E.05671
G1 X90.256 Y137.681 E.05671
G1 X88.647 Y136.855 E.05671
G1 X87.08 Y135.951 E.05671
G1 X85.561 Y134.97 E.05671
G1 X84.093 Y133.914 E.05671
G1 X82.679 Y132.786 E.05671
G1 X81.231 Y131.501 E.06071
M204 S1000
G1 X80.925 Y131.729 F10800
M204 S800
;TYPE:External perimeter
G1 F1200
G1 X79.758 Y130.59 E.05111
G1 X78.515 Y129.251 E.0573
G1 X77.341 Y127.851 E.05728
G1 X76.113 Y126.213 E.06417
G1 X75.207 Y124.884 E.05044
G1 X74.254 Y123.325 E.05729
G1 X73.38 Y121.72 E.0573
G1 X72.588 Y120.074 E.0573
G1 X71.878 Y118.39 E.0573
G1 X71.253 Y116.673 E.0573
G1 X70.714 Y114.926 E.0573
G1 X70.263 Y113.155 E.05729
G1 X69.901 Y111.364 E.0573
G1 X69.629 Y109.557 E.0573
G1 X69.447 Y107.739 E.0573
G1 X69.356 Y105.914 E.0573
G1 X69.356 Y104.086 E.0573
G1 X69.447 Y102.261 E.0573
G1 X69.629 Y100.443 E.0573
G1 X69.901 Y98.636 E.0573
G1 X70.263 Y96.845 E.0573
G1 X70.714 Y95.074 E.05729
G1 X71.253 Y93.327 E.0573
G1 X71.878 Y91.61 E.0573
G1 X72.588 Y89.926 E.0573
G1 X73.38 Y88.28 E.0573
G1 X74.254 Y86.675 E.0573
G1 X75.207 Y85.116 E.0573
G1 X76.237 Y83.606 E.0573
G1 X77.34 Y82.149 E.0573
G1 X78.515 Y80.749 E.0573
G1 X79.758 Y79.41 E.0573
G1 X81.066 Y78.134 E.05728
G1 X82.607 Y76.788 E.06417
G1 X83.865 Y75.785 E.05044
G1 X85.349 Y74.718 E.0573
G1 X86.884 Y73.727 E.0573
G1 X88.466 Y72.813 E.0573
G1 X90.092 Y71.98 E.0573
G1 X91.758 Y71.228 E.0573
G1 X93.459 Y70.56 E.0573
G1 X95.191 Y69.978 E.0573
G1 X96.951 Y69.483 E.0573
G1 X98.732 Y69.077 E.0573
G1 X100.532 Y68.759 E.0573
G1 X102.345 Y68.532 E.0573
G1 X104.167 Y68.396 E.05728
G1 X106.194 Y68.355 E.06357
G1 X107.659 Y68.388 E.04596
G1 X109.321 Y68.501 E.05222
G1 X110.976 Y68.69 E.05222
G1 X112.62 Y68.954 E.05222
G1 X114.251 Y69.292 E.05222
G1 X115.865 Y69.704 E.05222
G1 X117.463 Y70.191 E.05237
G1 X131.408 Y74.783 E.46037
G1 X132.434 Y75.073 E.03342
G1 X133.387 Y75.248 E.03037
G1 X134.867 Y75.35 E.04653
G1 X173.845 Y75.359 E1.22211
G1 X174.541 Y75.427 E.02194
G1 X175.572 Y75.659 E.03312
G1 X176.228 Y75.894 E.02186
G1 X177.172 Y76.369 E.03312
G1 X177.753 Y76.757 E.02193
G1 X178.296 Y77.202 E.022
G1 X178.792 Y77.699 E.022
G1 X179.236 Y78.239 E.02193
G1 X179.801 Y79.132 E.03312
G1 X180.1 Y79.764 E.02193
G1 X180.336 Y80.425 E.022
G1 X180.506 Y81.105 E.022
G1 X180.609 Y81.799 E.022
G1 X180.644 Y82.508 E.02224
G1 X180.635 Y127.851 E1.4217
G1 X180.566 Y128.549 E.022
G1 X180.43 Y129.235 E.02193
G1 X180.099 Y130.238 E.03312
G1 X179.801 Y130.868 E.02186
G1 X179.235 Y131.761 E.03312
G1 X178.792 Y132.301 E.02193
G1 X178.296 Y132.798 E.022
G1 X177.753 Y133.243 E.022
G1 X177.17 Y133.632 E.022
G1 X176.551 Y133.963 E.022
G1 X175.903 Y134.232 E.022
G1 X175.231 Y134.435 E.022
G1 X174.543 Y134.572 E.022
G1 X173.845 Y134.641 E.022
G1 X136.121 Y134.65 E1.1828
G1 X134.72 Y134.657 E.04394
G1 X133.873 Y134.696 E.02658
G1 X133.065 Y134.826 E.02566
G1 X132.168 Y135.001 E.02866
G1 X131.479 Y135.194 E.02242
G1 X117.462 Y139.809 E.4627
G1 X115.865 Y140.296 E.05237
G1 X114.251 Y140.708 E.05222
G1 X112.62 Y141.046 E.05222
G1 X110.976 Y141.31 E.05222
G1 X109.321 Y141.499 E.05222
G1 X107.659 Y141.612 E.05222
G1 X105.995 Y141.65 E.05221
G1 X104.167 Y141.604 E.05731
G1 X102.345 Y141.468 E.0573
G1 X100.532 Y141.241 E.0573
G1 X98.732 Y140.923 E.0573
G1 X96.951 Y140.517 E.0573
G1 X95.191 Y140.022 E.0573
G1 X93.459 Y139.44 E.0573
G1 X91.758 Y138.772 E.0573
G1 X90.092 Y138.02 E.0573
G1 X88.466 Y137.187 E.0573
G1 X86.884 Y136.273 E.0573
G1 X85.349 Y135.282 E.0573
G1 X83.865 Y134.215 E.0573
G1 X82.436 Y133.075 E.0573
G1 X80.968 Y131.77 E.06159
M204 S1000
G1 X81.014 Y131.339 F10800
;WIPE_START
G1 F8640
G1 X79.758 Y130.59 E-.39027
G1 X78.669 Y129.417 E-.36973
;WIPE_END
G1 E-.04 F2100
G1 Z.6 F720
G1 X78.272 Y104.91 F10800
G1 Z.2 F720
G1 E.8 F2100
M204 S800
;TYPE:Perimeter
G1 F1200
G1 X78.231 Y105.602 E.02174
G1 X78.048 Y106.292 E.0224
G1 X77.752 Y106.912 E.02154
G1 X77.633 Y107.112 E.00727
G1 X77.119 Y107.725 E.02511
G1 X76.516 Y108.2 E.02406
G1 X75.841 Y108.537 E.02363
G1 X75.114 Y108.734 E.02363
G1 X74.362 Y108.782 E.02363
G1 X73.663 Y108.689 E.0221
G1 X72.903 Y108.434 E.02514
G1 X72.259 Y108.054 E.02345
G1 X71.694 Y107.546 E.0238
G1 X71.189 Y106.843 E.02714
G1 X70.925 Y106.259 E.02011
G1 X70.732 Y105.415 E.02714
G1 X70.716 Y104.773 E.02012
G1 X70.867 Y103.921 E.02714
G1 X71.101 Y103.324 E.02011
G1 X71.571 Y102.596 E.02714
G1 X72.019 Y102.137 E.02012
G1 X72.635 Y101.703 E.02363
G1 X73.325 Y101.4 E.02363
G1 X74.244 Y101.225 E.02933
G1 X74.962 Y101.247 E.02252
G1 X75.698 Y101.415 E.02369
G1 X76.384 Y101.724 E.02358
G1 X76.993 Y102.162 E.02352
G1 X77.502 Y102.709 E.02344
G1 X77.892 Y103.342 E.0233
G1 X78.136 Y103.997 E.02191
G1 X78.199 Y104.236 E.00775
G1 X78.276 Y104.85 E.0194
M204 S1000
G1 X77.899 Y104.93 F10800
M204 S800
;TYPE:External perimeter
G1 F1200
G1 X77.855 Y105.574 E.02022
G1 X77.685 Y106.19 E.02005
G1 X77.416 Y106.74 E.01919
G1 X76.83 Y107.483 E.02967
G1 X76.288 Y107.899 E.02143
G1 X75.678 Y108.197 E.02129
G1 X75.021 Y108.368 E.02129
G1 X74.343 Y108.406 E.02129
G1 X73.72 Y108.316 E.01975
G1 X73.032 Y108.08 E.0228
G1 X72.455 Y107.732 E.02111
G1 X71.95 Y107.27 E.02146
G1 X71.551 Y106.721 E.02129
G1 X71.269 Y106.104 E.02129
G1 X71.114 Y105.443 E.02129
G1 X71.093 Y104.764 E.02129
G1 X71.218 Y104.059 E.02246
G1 X71.452 Y103.461 E.02011
G1 X71.84 Y102.86 E.02246
G1 X72.288 Y102.4 E.02012
G1 X72.847 Y102.015 E.02129
G1 X73.471 Y101.748 E.02129
G1 X74.309 Y101.597 E.02668
G1 X74.942 Y101.624 E.01989
G1 X75.605 Y101.781 E.02136
G1 X76.22 Y102.064 E.02123
G1 X76.765 Y102.462 E.02117
G1 X77.219 Y102.959 E.02109
G1 X77.565 Y103.531 E.02096
G1 X77.778 Y104.117 E.01957
G1 X77.898 Y104.871 E.02391
M204 S1000
G1 X78.252 Y105.119 F10800
;WIPE_START
G1 F8640
G1 X77.855 Y105.574 E-.16262
G1 X77.685 Y106.19 E-.14768
G1 X77.416 Y106.74 E-.14134
G1 X76.83 Y107.483 E-.2185
G1 X76.521 Y107.72 E-.08986
;WIPE_END
G1 E-.04 F2100
G1 Z.6 F720
G1 X80.578 Y92.11 F10800
G1 Z.2 F720
G1 E.8 F2100
M204 S800
;TYPE:Perimeter
G1 F1200
G1 X80.674 Y92.795 E.02168
G1 X80.629 Y93.547 E.02363
G1 X80.445 Y94.243 E.02256
G1 X80.101 Y94.952 E.0247
G1 X79.516 Y95.671 E.02906
G1 X78.959 Y96.11 E.02225
G1 X78.283 Y96.461 E.02391
G1 X77.553 Y96.669 E.02378
G1 X76.799 Y96.726 E.02371
G1 X76.051 Y96.632 E.02365
G1 X75.347 Y96.396 E.02327
G1 X74.733 Y96.046 E.02215
G1 X74.092 Y95.492 E.02658
G1 X73.643 Y94.886 E.02363
G1 X73.323 Y94.204 E.02363
G1 X73.156 Y93.525 E.02193
G1 X73.114 Y92.719 E.02531
G1 X73.224 Y92.028 E.02193
G1 X73.499 Y91.269 E.02531
G1 X73.898 Y90.63 E.02363
G1 X74.416 Y90.083 E.02363
G1 X75.033 Y89.649 E.02363
G1 X75.723 Y89.346 E.02363
G1 X76.243 Y89.24 E.01665
G1 X76.768 Y89.163 E.01663
G1 X77.401 Y89.195 E.01987
G1 X78.133 Y89.37 E.02361
G1 X78.817 Y89.687 E.02363
G1 X79.425 Y90.133 E.02363
G1 X79.932 Y90.691 E.02363
G1 X80.318 Y91.338 E.02363
G1 X80.569 Y92.051 E.0237
M204 S1000
G1 X80.168 Y92.043 F10800
M204 S800
;TYPE:External perimeter
G1 F1200
G1 X80.211 Y92.169 E.00416
G1 X80.3 Y92.842 E.02129
G1 X80.253 Y93.519 E.02129
G1 X80.082 Y94.141 E.02021
G1 X79.766 Y94.78 E.02235
G1 X79.228 Y95.428 E.02643
G1 X78.732 Y95.81 E.01962
G1 X78.119 Y96.122 E.02156
G1 X77.46 Y96.303 E.02143
G1 X76.78 Y96.349 E.02136
G1 X76.107 Y96.26 E.0213
G1 X75.476 Y96.042 E.02093
G1 X74.93 Y95.724 E.01981
G1 X74.348 Y95.215 E.02423
G1 X73.949 Y94.666 E.02129
G1 X73.666 Y94.049 E.02129
G1 X73.524 Y93.441 E.01958
G1 X73.491 Y92.709 E.02296
G1 X73.596 Y92.094 E.01958
G1 X73.85 Y91.407 E.02296
G1 X74.215 Y90.835 E.02129
G1 X74.686 Y90.346 E.02129
G1 X75.245 Y89.96 E.02129
G1 X75.869 Y89.693 E.02129
G1 X76.707 Y89.542 E.02668
G1 X77.382 Y89.572 E.02119
G1 X78.04 Y89.735 E.02128
G1 X78.654 Y90.027 E.02129
G1 X79.197 Y90.434 E.02129
G1 X79.649 Y90.94 E.02129
G1 X79.992 Y91.526 E.02129
G1 X80.149 Y91.986 E.01524
M204 S1000
G1 X80.3 Y92.064 F10800
;WIPE_START
G1 F8640
G1 X80.211 Y92.169 E-.04452
G1 X80.3 Y92.842 E-.15676
G1 X80.253 Y93.519 E-.15676
G1 X80.082 Y94.141 E-.14884
G1 X79.766 Y94.78 E-.16459
G1 X79.521 Y95.075 E-.08852
;WIPE_END
G1 E-.04 F2100
G1 Z.6 F720
M73 P1 R103
G1 X81.566 Y79.548 F10800
G1 Z.2 F720
M73 Q1 S104
G1 E.8 F2100
M204 S800
;TYPE:Perimeter
G1 F1200
G1 X82.282 Y79.161 E.02554
G1 X82.905 Y78.969 E.02044
G1 X83.611 Y78.886 E.02227
G1 X84.275 Y78.921 E.02085
G1 X85.008 Y79.104 E.02368
G1 X85.698 Y79.429 E.02394
G1 X86.311 Y79.885 E.02394
G1 X86.821 Y80.453 E.02394
G1 X87.209 Y81.111 E.02394
G1 X87.459 Y81.832 E.02394
G1 X87.562 Y82.588 E.02394
G1 X87.494 Y83.461 E.02745
G1 X87.316 Y84.088 E.02044
G1 X86.914 Y84.866 E.02745
G1 X86.503 Y85.38 E.02062
G1 X85.928 Y85.874 E.02377
G1 X85.262 Y86.248 E.02395
G1 X84.535 Y86.484 E.02395
G1 X83.777 Y86.571 E.02395
G1 X83.015 Y86.506 E.02396
G1 X82.282 Y86.292 E.02395
G1 X81.606 Y85.937 E.02395
G1 X81.013 Y85.456 E.02395
G1 X80.526 Y84.866 E.02395
G1 X80.166 Y84.193 E.02395
G1 X79.946 Y83.461 E.02396
G1 X79.877 Y82.852 E.0192
G1 X79.927 Y82.102 E.02358
G1 X80.125 Y81.364 E.02395
G1 X80.465 Y80.68 E.02395
G1 X80.934 Y80.077 E.02395
G1 X81.514 Y79.578 E.02399
M204 S1000
G1 X81.81 Y79.837 F10800
M204 S800
;TYPE:External perimeter
G1 F1200
G1 X82.358 Y79.535 E.01962
G1 X83.016 Y79.329 E.02161
G1 X83.649 Y79.261 E.01996
G1 X84.247 Y79.297 E.01879
G1 X84.912 Y79.468 E.02152
